X:1
T: The New English Lady
N:
C:
S:(1) La Rapide Nouvelle Anglaise (2) La Nouvelle Rapide Anglaise
A:
O:
R:
M:4/4
K:G
I:speed 250
%W: A
% voice 1 (1 lines, 19 notes)
K:G
M:4/4
L:1/16
D4 |G4 B2 d2 c4 F4 |G4 d2 g2 d4 d4 |c4 A4 B4 G4 |A4 D2 F2 G8 |
%W:
% voice 1 (1 lines, 18 notes)
G4 B2 d2 c4 F4 |G4 d2 g2 d4 d4 |c4 A4 B4 G4 |A4 D2 F2 G4 |
%W: B
% voice 1 (1 lines, 18 notes)
z4 |g4 e4 f4 d4 |e4 c4 d4 c2 B2 |c4 A4 B4 G4 |A4 D2 F2 G8 |
%W:
% voice 1 (1 lines, 17 notes)
g4 e4 f4 d4 |e4 c4 d4 c2 B2 |c4 A4 B4 G4 |A4 D2 F2 G4 |
%W: A
% voice 1 (1 lines, 16 notes)
K:D
d4 d4 d4 c2 B2 |A4 A4 A8 |B4 B4 B4 A2 G2 |F4 F4 F8 |
%W:
% voice 1 (1 lines, 19 notes)
G4 G4 G4 F2 E2 |F4 F4 F4 E2 D2 |E4 E4 E2 D2 C2 E2 |D4 D4 D8 |
%W: B
% voice 1 (1 lines, 20 notes)
A4 d4 d4 f2 e2 |d4 A4 A8 |B2 c2 d4 e2 f2 g4 |a2 g2 f2 e2 d4 c4 |
%W:
% voice 1 (1 lines, 19 notes)
A4 d4 d4 f2 e2 |d4 A4 A8 |g2 f2 e2 d2 c2 A2 B2 c2 |d4 d4 d8 |
